!!!COM: Scriabin, Alexander
!!!OTL: Prelude
!!!OPR: 4 Preludes
!!!OPS: 37
!!!ONM: 2
!!!ODT: 1903
!!!AGN: Prelude
**kern	**kern
*staff2	*staff1
*clefF4	*clefG2
*k[f#c#g#d#a#e#]	*k[f#c#g#d#a#e#]
*F#:	*F#:
*M9/8	*M9/8
8BL	8e#L 8a# 8dd#
8CC# 8C#	8B 8en
8CC##XJ 8C##X	8BJ 8e#X
=1	=1
8DD#L 8D#	8BL 8f#
8B	8a#
8GGG#J 8GG#	8F#J 8B
8D#L	8BL 8d#
8f#	8b
8BJ	8f#J 8a#
8BL 8e#	8a#L 8dd#
8C# 8B	8en
8CC#J 8C#	8BJ 8e#X
=2	=2
8C#L 8A# 8c#	8f#L 8a#
8FFF# 8FF#	8A# 8c#
8CC#J 8C#	8A#J 8c# 8f#
8D#L	8c#L 8f# 8g#
8c#	8f# 8a#
8f#J	8a#J 8cc#
8F#L 8B#X 8f#	8a#L 8ee# 8aa#
8GGG# 8GG#	8B 8f# 8b
8GGG##XJ 8GG##X	8B#XJ 8f# 8b#X
=3	=3
8AAA#L 8AA#	8c#L 8f# 8cc#
8F# 8c# 8f#	8e# 8cc# 8ee#
8DDD#J 8DD#	8F#J 8c# 8f#
8AA#L 8F#	8A#L 8c# 8f# 8a#
8c#	8f# 8a# 8cc# 8ff#
8F#J 8c# 8f#	8e#J 8a# 8cc# 8ee#
8F#L 8B#X 8f#	8a#L 8ee# 8aa#
8GG# 8F#	8B 8f# 8b
8GGG#J 8GG#	8B#XJ 8f# 8b#X
=4	=4
8GG#L 8E# 8c#	8e#L 8g# 8cc# 8ee#
*	*clefF4
8CCC# 8CC#	8C# 8E# 8G#
8GG#J	8E#J 8G# 8c#
8E#L	8G#L 8c# 8d#
*	*clefG2
8G#	8c# 8e#
8c#J	8g#J
8C#L 8B	8enL 8g# 8dd#
8GGG# 8GG#	8B 8e 8f##X
8CCC#J 8CC#	8BJ 8e 8g#
=5	=5
8FFF#L 8FF#	8enL 8gn 8dd#
8En 8A#X 8d#	8e 8g 8an
8EJ 8A# 8c#	8eJ 8g 8a#X
8BBL 8D# 8F# 8A#	8d#L 8f# 8cc#
8BB 8D# 8F# 8B	8d# 8f# 8b
8BBBJ 8BB	8f#J 8b 8dd#
8EL 8d#	8gnL 8b 8ff#
8BBB 8BB	8d# 8g 8a#
8EEEnJ 8EEn	8c#J 8g 8b
=6	=6
8AAAnL 8AAn	8gnL 8b-X 8ff#
8Gn 8c#X 8f#	8g 8b- 8ccn
8GJ 8c# 8en	8gJ 8b- 8cc#X
8DnL 8F# 8An 8c#	8f#L 8an 8een
8D 8F# 8A 8dn	8f# 8a 8ddn
8DDnJ 8D	8f#J 8dd 8ff#
8F#L 8A#X 8B#X 8e#X	8a#XL 8cc##X 8aa#
8GGG#X 8GG#X	8e#X 8cc## 8ee#X
8F#J 8A# 8B# 8d#X	8f#J 8dd 8ff#X
=7	=7
8B#XL 8f# 8a#	8ee#L 8aa# 8eee#
8CC# 8C#	8g##X 8ee# 8gg##X
8B#J 8f#	8a#J 8dd# 8aa#
4B# 4f# 4a#	4ee# 4aa# 4eee#
8CC# 8C#	8dd# 8ddd#
8BnL 8e#	8a#L 8dd# 8aa#
8CC# 8C#	8en 8a# 8cc# 8een
8BJ 8e#	8e#XJ 8g## 8cc# 8ee#X
=8	=8
8A#L 8f# 8a#	8dd#L 8ff# 8aa# 8ddd#
8FFF# 8FF#	8cc# 8ff# 8aa# 8ccc#
8C#J 8c#	8a#J 8cc# 8ff# 8aa#
8A#L 8c# 8a#	8g#L 8cc# 8gg#
8C# 8A# 8c#	8f# 8cc# 8ff#
8FF#J 8F#	8g#J 8cc# 8gg#
8F#L 8A# 8B#X 8e#	8a#L 8cc##X 8aa#
8GGG# 8GG#	8e# 8cc## 8ee#
8F#J 8A# 8B# 8d#	8f#J 8dd# 8ff#
=9	=9
8B#XL 8f# 8a#	8ee#L 8aa# 8eee#
8CC# 8C#	8g##X 8ee# 8gg##X
8B#J 8f#	8a#J 8dd# 8aa#
4B# 4f# 4a#	4ee# 4aa# 4eee#
8CC# 8C#	8dd# 8ddd#
8BnL 8e#	8a#L 8dd# 8aa#
8CC# 8C#	8en 8a# 8cc# 8een
8BJ 8e#	8e#XJ 8g## 8cc# 8ee#X
=10	=10
8A#L 8en 8g#	8dd#L 8gg# 8ddd#
8CC# 8C#	8f##X 8dd# 8ff##X
8A#J 8e	8g#J 8cc# 8gg#
4A# 4e 4g#	4dd# 4gg# 4ddd#
8CC# 8C#	8cc# 8ccc#
8AnL 8d#	8g#L 8cc# 8gg#
8CC# 8C#	8dn 8g# 8b 8ddn
8AJ 8d#	8d#XJ 8f## 8b 8dd#X
=11	=11
8G#L 8dn 8f#	8cc#L 8ff# 8ccc#
8CC# 8C#	8e# 8cc# 8ee#
8G#J 8d	8f#J 8b 8ff#
4G# 4d 4f#	4cc# 4ff# 4ccc#
8CC# 8C#	8b 8bb
16%3B 16%3d 16%3g#	8f#L 8ddn 8ff#
.	8en 8een
16%3CC# 16%3C#	.
.	8e#XJ 8dd 8ee#X
=12	=12
16%3A# 16%3c# 16%3en	8g#L 8cc# 8gg#
.	8e#X 8cc# 8ee#X
16%3CC# 16%3C#	.
.	8f#J 8cc# 8ff#
16%3A# 16%3c# 16%3en	8g#L 8cc# 8gg#
.	8f# 8cc# 8ff#
16%3CC# 16%3C#	.
.	8f##XJ 8cc# 8ff##X
16%3B 16%3d#	8a#L 8dd# 8aa#
.	8f## 8dd# 8ff##
16%3CC# 16%3C#	.
.	8g#J 8dd# 8gg#
=13	=13
8B#XL 8f#	8a#L 8dd# 8aa#
8GG# 8G#	8g# 8dd# 8gg#
8CC#J 8C#	8g##XJ 8dd# 8gg##X
8B#L 8f#	8a#L 8dd# 8aa#
8GG# 8G#	8g#X 8dd# 8gg#X
8CC#J 8C#	8g##XJ 8dd# 8gg##X
8B#L 8f#	8a#L 8dd# 8aa#
8GG# 8G#	8g#X 8dd# 8gg#X
8CC#J 8C#	8g##XJ 8dd# 8gg##X
=14	=14
8B#XL 8f#	8a#L 8dd# 8aa#
8GG# 8G#	8g#X 8dd# 8gg#X
8CC#J 8C#	8g##XJ 8dd# 8gg##X
8B# 8f#	40%3a#LL 40%3dd# 40%3aa#
.	40%3b 40%3bb
8r	.
.	40%3b#X 40%3bb#X
.	40%3cc# 40%3ccc#
8r	.
.	40%3cc##XJJ 40%3ccc##X
8BnL 8e# 8bn	8dd#L 8aa# 8ddd#
8CC# 8C#	8en 8bn 8een
8CC##XJ 8C##X	8e#XJ 8b#X 8ee#X
=15	=15
8DD#L 8D#	8f#L 8b 8ff#
8B 8f# 8b	8a# 8ff# 8aa#
8GGG#J 8GG#	8BJ 8f# 8b
8D#L 8B	8d#L 8f# 8b 8dd#
8f#	8b 8dd# 8ff# 8bb
8BJ 8f# 8b	8a#J 8dd# 8ff# 8aa#
[4.B [4.f# [4.b	[4.dd# [4.aa# [4.ddd#
=16	=16
2.B] 2.f#] 2.b]	2.dd#] 2.aa#] 2.ddd#]
8BL 8e# 8b	8dd#L 8aa# 8ddd#
8C# 8B	8en 8b 8een
8CC#J 8C#	8e#XJ 8b 8ee#X
=17	=17
*	*^
8FFF#L 8FF#	8a#L 8cc# 8aa#	4.rc
8C# 8A#	8c# 8f# 8cc#	.
8BB#XJ 8A#	8dnJ 8f# 8ddn	.
4BB# 4A#	8dL 8dd	4f#
.	8f# 8ff#	.
8C# 8A#	8c#J 8f# 8cc#	8rc
8BnL 8e# 8bn	8dd#XL 8aa# 8ddd#X	4.rc
8C# 8B	8en 8b 8een	.
8CC#J 8C#	8e#XJ 8b 8ee#X	.
=18	=18	=18
*^	*	*
8FFF#L 8FF#	4.rEE	8a#L 8cc# 8aa#	4.rc
8C# 8A#	.	8c# 8f# 8cc#	.
8BB#XJ 8A#	.	8dnJ 8f# 8ddn	.
4.A#	4BB#	8dL 8dd	4f#
.	.	8f# 8ff#	.
.	8C#	8c#J 8f# 8cc#	8rc
8FFF#L 8FF#	4.rEE	8a#L 8cc# 8aa#	4.rc
8C# 8A#	.	8c# 8f# 8cc#	.
8BB#J 8A#	.	8dJ 8f# 8dd	.
*	*	*v	*v
=19	=19	=19
4.A#	4BB#X	8dnL 8f# 8ddn
.	.	8f# 8ff#
.	8C#	8c#J 8f# 8cc#
4.A#	4BB#	8dL 8f# 8dd
.	.	8f# 8ff#
.	8C#	8c#J 8f# 8cc#
4.A#	4BB#	8dL 8f# 8dd
.	.	8f# 8ff#
.	8C#	8c#J 8f# 8cc#
*v	*v	*
=20	=20
[2.FFF# [2.FF# [2.C# [2.A#	[2.f# [2.cc# [2.aa#
4.FFF#] 4.FF#] 4.C#] 4.A#]	4.f#] 4.cc#] 4.aa#]
==	==
*-	*-
!!!system-decoration: {(s1,s2)}
